!!!SOCIAL_FUNCTION:	parade songs
!!!PDT:	1922
!!!OTL: No_91_Parade_Song_(i).krn
!!!REG: Southwest
!!!LANG: Non-Tone
!!!LING_GROUP: Uto-Aztecan
**kern	**kern
*staff2	*staff1
=1-	=1-
*clefF4	*clefF4
*k[f#c#g#]	*k[f#c#g#]
*M2/4	*M2/4
4GG#/	4F#\
4GG#/	4F#\
=2	=2
4GG#/	4f#\
4GG#/	4f#\
=3	=3
4GG#/	4f#\
4GG#/	4f#\
=4	=4
2r	8.f#\L
.	16e#\Jk
.	4e#\
=5	=5
2r	4f#\
.	4f#\
=6	=6
2r	16f#\LK
.	8.c#\J
.	8c#\L
.	8B\J
=7	=7
2r	4.A\
.	8A\
=8	=8
2r	16A\LK
.	[8.A\J
.	4A\]
=9	=9
2r	16A\LK
.	[8.A\J
.	4A\_
=10||	=10||
*M3/4	*M3/4
2.r	2.A\]
=11||	=11||
*M2/4	*M2/4
2r	8.c#\L
.	16c#\Jk
.	4c#\
=12	=12
=	=
2r	4f#\
.	4c#\
=13	=13
*M3/4	*M3/4
2.r	16c#\LK
.	[8.c#\J
.	4c#\]
.	16c#\LL
.	16B\J
.	8B\J
=14||	=14||
*M2/4	*M2/4
2r	4c#\
.	8c#\L
.	8B\J
=15	=15
2r	4A\
.	4A\
=16	=16
2r	4.F#\
.	8F#\
=17	=17
2r	16F#\LK
.	8.F#\J
.	16F#\LK
.	[8.F#\J
=18||	=18||
*M3/4	*M3/4
2.r	2.F#\]
=19||	=19||
*M2/4	*M2/4
2r	16A\LK
.	8.F#\J
.	4F#\
=20	=20
2r	4c#\
.	8.c#\L
.	16B\Jk
=21	=21
2r	4.B\
.	8A\
=22	=22
2r	4B\
.	4c#;\
=23	=23
2r	2A\
=24	=24
2r	8F#\L
.	8A\J
.	4A\
=25||	=25||
*M3/4	*M3/4
2.r	8.F#\L
.	16F#\Jk
.	2F#\
=26	=26
2.r	8F#\L
.	[8F#\J
.	8F#\L]
.	[8F#\J
.	4F#\]
=27	=27
2.r	2.F#\
=28	=28
2.r	16F#\LK
.	8.F#\J
.	4F#\
.	4A\
==:|!	==:|!
*-	*-
